X: 39596
T: Teermaclane Fancy, The
R: reel
M: 4/4
K: Gmajor
|:Bc|(3d^cd =cA BGGF|DG (3GFG FGAB|dg (3gfg fgag|
fdcB A=F F2|dBcA BGGF|DG (3GEG FGAB|dg g2 fgag|fdcA G2:|
;Bc|dg (3gfg fgag|fdcB A=F F2|DG G2 FGAc|Bcde fgaf|
dg g2 fgag|fdcB A=F F2|DG (3GFG FGAd|(3Bcd cA G2:|

